svg/shield_airplane_outline.svg

<svg xmlns="http://www.w3.org/2000/svg" viewBox="0 0 24 24"><path d="M21 11c0 5.55-3.84 10.74-9 12-5.16-1.26-9-6.45-9-12V5l9-4 9 4zm-9 10c3.75-1 7-5.46 7-9.78V6.3l-7-3.12L5 6.3v4.92C5 15.54 8.25 20 12 21m0-15.32c.5 0 .95.43.95.95v3.48L18 13.26v1.27l-5.05-1.58v3.47l1.26.95v.95L12 17.68l-2.21.64v-.95l1.26-.95v-3.47L6 14.53v-1.27l5.05-3.15V6.63c0-.52.45-.95.95-.95"/></svg>

<?xml version="1.0" encoding="UTF-8"?><!DOCTYPE svg PUBLIC "-//W3C//DTD SVG 1.1//EN" "http://www.w3.org/Graphics/SVG/1.1/DTD/svg11.dtd"><svg xmlns="http://www.w3.org/2000/svg" xmlns:xlink="http://www.w3.org/1999/xlink" version="1.1" id="mdi-shield-airplane-outline" width="24" height="24" viewBox="0 0 24 24"><path d="M21,11C21,16.55 17.16,21.74 12,23C6.84,21.74 3,16.55 3,11V5L12,1L21,5V11M12,21C15.75,20 19,15.54 19,11.22V6.3L12,3.18L5,6.3V11.22C5,15.54 8.25,20 12,21M12,5.68C12.5,5.68 12.95,6.11 12.95,6.63V10.11L18,13.26V14.53L12.95,12.95V16.42L14.21,17.37V18.32L12,17.68L9.79,18.32V17.37L11.05,16.42V12.95L6,14.53V13.26L11.05,10.11V6.63C11.05,6.11 11.5,5.68 12,5.68Z" /></svg>
